elementary-add-osx/status/24/glipper-panel.svg

<?xml version="1.0" encoding="UTF-8" standalone="no"?>
<svg
   xmlns:dc="http://purl.org/dc/elements/1.1/"
   xmlns:cc="http://creativecommons.org/ns#"
   xmlns:rdf="http://www.w3.org/1999/02/22-rdf-syntax-ns#"
   xmlns:svg="http://www.w3.org/2000/svg"
   xmlns="http://www.w3.org/2000/svg"
   xmlns:sodipodi="http://sodipodi.sourceforge.net/DTD/sodipodi-0.dtd"
   xmlns:inkscape="http://www.inkscape.org/namespaces/inkscape"
   height="24"
   width="24"
   version="1.1"
   viewBox="0 0 24 24"
   id="svg2"
   inkscape:version="0.91 r13725"
   sodipodi:docname="glipper-panel.svg">
  <metadata
     id="metadata16">
    <rdf:RDF>
      <cc:Work
         rdf:about="">
        <dc:format>image/svg+xml</dc:format>
        <dc:type
           rdf:resource="http://purl.org/dc/dcmitype/StillImage" />
      </cc:Work>
    </rdf:RDF>
  </metadata>
  <defs
     id="defs14" />
  <sodipodi:namedview
     pagecolor="#ffffff"
     bordercolor="#666666"
     borderopacity="1"
     objecttolerance="10"
     gridtolerance="10"
     guidetolerance="10"
     inkscape:pageopacity="0"
     inkscape:pageshadow="2"
     inkscape:window-width="1600"
     inkscape:window-height="814"
     id="namedview12"
     showgrid="false"
     inkscape:zoom="9.8333333"
     inkscape:cx="-5.3898305"
     inkscape:cy="12"
     inkscape:window-x="0"
     inkscape:window-y="24"
     inkscape:window-maximized="1"
     inkscape:current-layer="svg2" />
  <g
     transform="translate(0 -1028.4)"
     fill="#fff"
     id="g4"
     style="fill:#4c4c4c;fill-opacity:1">
    <path
       d="m7 7v1 1 9h4 1 1v-4h4v-1-1-3-1-1h-1.094c-0.211 0.5755-0.767 1-1.406 1h-0.5-4-0.5c-0.6388 0-1.1949-0.4245-1.4062-1h-1.0938zm2.25 3h5.5c0.138 0 0.25 0.112 0.25 0.25v0.5c0 0.138-0.112 0.25-0.25 0.25h-5.5c-0.1385 0-0.25-0.112-0.25-0.25v-0.5c0-0.138 0.1115-0.25 0.25-0.25zm0 2h5.5c0.138 0 0.25 0.112 0.25 0.25v0.5c0 0.138-0.112 0.25-0.25 0.25h-1.75-1-1-1.75c-0.1385 0-0.25-0.112-0.25-0.25v-0.5c0-0.138 0.1115-0.25 0.25-0.25zm0 2h0.75 0.25 0.75 0.75c0.138 0 0.25 0.112 0.25 0.25v0.5c0 0.138-0.112 0.25-0.25 0.25h-0.75-0.75-0.25-0.75c-0.1385 0-0.25-0.112-0.25-0.25v-0.5c0-0.138 0.1115-0.25 0.25-0.25z"
       transform="translate(0 1028.4)"
       id="path6"
       style="fill:#4c4c4c;fill-opacity:1" />
    <path
       style="color-rendering:auto;text-decoration-color:#000000;color:#000000;isolation:auto;mix-blend-mode:normal;shape-rendering:auto;solid-color:#000000;block-progression:tb;text-decoration-line:none;text-decoration-style:solid;image-rendering:auto;white-space:normal;text-indent:0;text-transform:none;fill:#4c4c4c;fill-opacity:1"
       d="m6.5 5c-0.8224 0-1.5 0.6777-1.5 1.5v12c0 0.822 0.6776 1.5 1.5 1.5h11c0.822 0 1.5-0.678 1.5-1.5v-12c0-0.8223-0.678-1.5-1.5-1.5h-1.609c0.066 0.1527 0.109 0.3185 0.109 0.5v0.5h1.5c0.286 0 0.5 0.2144 0.5 0.5v7.5l-5 5h-6.5c-0.2856 0-0.5-0.214-0.5-0.5v-12c0-0.2856 0.2144-0.5 0.5-0.5h1.5v-0.5c0-0.1815 0.0429-0.3473 0.1094-0.5h-1.6094z"
       transform="translate(0 1028.4)"
       id="path8" />
    <path
       d="m11 4v0.5 0.5h-1-0.5c-0.277 0-0.5 0.223-0.5 0.5v1c0 0.277 0.223 0.5 0.5 0.5h5c0.277 0 0.5-0.223 0.5-0.5v-1c0-0.277-0.223-0.5-0.5-0.5h-0.5-1v-0.5-0.5h-0.5-1-0.5z"
       transform="translate(0 1028.4)"
       id="path10"
       style="fill:#4c4c4c;fill-opacity:1" />
  </g>
</svg>

<?xml version="1.0" encoding="UTF-8" standalone="no"?>
<svg
   xmlns:dc="http://purl.org/dc/elements/1.1/"
   xmlns:cc="http://creativecommons.org/ns#"
   xmlns:rdf="http://www.w3.org/1999/02/22-rdf-syntax-ns#"
   xmlns:svg="http://www.w3.org/2000/svg"
   xmlns="http://www.w3.org/2000/svg"
   xmlns:sodipodi="http://sodipodi.sourceforge.net/DTD/sodipodi-0.dtd"
   xmlns:inkscape="http://www.inkscape.org/namespaces/inkscape"
   height="24"
   width="24"
   version="1.1"
   viewBox="0 0 24 24"
   id="svg2"
   inkscape:version="0.91 r13725"
   sodipodi:docname="glipper-panel.svg">
  <metadata
     id="metadata16">
    <rdf:RDF>
      <cc:Work
         rdf:about="">
        <dc:format>image/svg+xml</dc:format>
        <dc:type
           rdf:resource="http://purl.org/dc/dcmitype/StillImage" />
      </cc:Work>
    </rdf:RDF>
  </metadata>
  <defs
     id="defs14" />
  <sodipodi:namedview
     pagecolor="#ffffff"
     bordercolor="#666666"
     borderopacity="1"
     objecttolerance="10"
     gridtolerance="10"
     guidetolerance="10"
     inkscape:pageopacity="0"
     inkscape:pageshadow="2"
     inkscape:window-width="1535"
     inkscape:window-height="876"
     id="namedview12"
     showgrid="false"
     inkscape:zoom="9.8333333"
     inkscape:cx="-4.5254237"
     inkscape:cy="7.019703"
     inkscape:window-x="65"
     inkscape:window-y="24"
     inkscape:window-maximized="1"
     inkscape:current-layer="svg2" />
  <path
     style="fill:#4c4c4c;fill-opacity:1"
     inkscape:connector-curvature="0"
     id="path6"
     d="m 7,7 0,1 0,1 0,9 4,0 1,0 1,0 0,-4 4,0 0,-1 0,-1 0,-3 0,-1 0,-1 -1.094,0 C 15.695,7.5755 15.139,8 14.5,8 L 14,8 10,8 9.5,8 C 8.8612,8 8.3051,7.5755 8.0938,7 L 7,7 Z m 2.25,3 5.5,0 c 0.138,0 0.25,0.112 0.25,0.25 l 0,0.5 C 15,10.888 14.888,11 14.75,11 l -5.5,0 C 9.1115,11 9,10.888 9,10.75 l 0,-0.5 C 9,10.112 9.1115,10 9.25,10 Z m 0,2 5.5,0 c 0.138,0 0.25,0.112 0.25,0.25 l 0,0.5 C 15,12.888 14.888,13 14.75,13 L 13,13 12,13 11,13 9.25,13 C 9.1115,13 9,12.888 9,12.75 l 0,-0.5 C 9,12.112 9.1115,12 9.25,12 Z m 0,2 0.75,0 0.25,0 0.75,0 0.75,0 c 0.138,0 0.25,0.112 0.25,0.25 l 0,0.5 C 12,14.888 11.888,15 11.75,15 L 11,15 10.25,15 10,15 9.25,15 C 9.1115,15 9,14.888 9,14.75 l 0,-0.5 C 9,14.112 9.1115,14 9.25,14 Z" />
  <path
     inkscape:connector-curvature="0"
     id="path8"
     d="M 6.5,5 C 5.6776,5 5,5.6777 5,6.5 l 0,12 C 5,19.322 5.6776,20 6.5,20 l 11,0 c 0.822,0 1.5,-0.678 1.5,-1.5 l 0,-12 C 19,5.6777 18.322,5 17.5,5 L 15.891,5 C 15.957,5.1527 16,5.3185 16,5.5 L 16,6 17.5,6 C 17.786,6 18,6.2144 18,6.5 l 0,7.5 -5,5 -6.5,0 C 6.2144,19 6,18.786 6,18.5 L 6,6.5 C 6,6.2144 6.2144,6 6.5,6 L 8,6 8,5.5 C 8,5.3185 8.0429,5.1527 8.1094,5 L 6.5,5 Z"
     style="color:#000000;text-indent:0;text-decoration:none;text-decoration-line:none;text-decoration-style:solid;text-decoration-color:#000000;text-transform:none;block-progression:tb;white-space:normal;isolation:auto;mix-blend-mode:normal;solid-color:#000000;fill:#4c4c4c;color-rendering:auto;image-rendering:auto;shape-rendering:auto;fill-opacity:1" />
  <path
     style="fill:#4c4c4c;fill-opacity:1"
     inkscape:connector-curvature="0"
     id="path10"
     d="M 11,4 11,4.5 11,5 10,5 9.5,5 C 9.223,5 9,5.223 9,5.5 l 0,1 C 9,6.777 9.223,7 9.5,7 l 5,0 C 14.777,7 15,6.777 15,6.5 l 0,-1 C 15,5.223 14.777,5 14.5,5 L 14,5 13,5 13,4.5 13,4 12.5,4 11.5,4 11,4 Z" />
</svg>
